Origami/32x32/apps/day-of-the-tentacle-remastered.svg

<svg width="32" height="32" version="1" xmlns="http://www.w3.org/2000/svg">
 <path d="m30 29.6s0-26.6-14-26.6-14 26.6-14 26.6c0 0.7756 0.6244 1.4 1.4 1.4h25.2c0.7756 0 1.4-0.6244 1.4-1.4z" style="opacity:.2"/>
 <path d="m30 28.6s0-26.6-14-26.6-14 26.6-14 26.6c0 0.7756 0.6244 1.4 1.4 1.4h25.2c0.7756 0 1.4-0.6244 1.4-1.4z" style="fill:#bb4499"/>
 <path d="M 16 2 C 2 2 2 28.599609 2 28.599609 C 2 28.663802 2.0112452 28.725257 2.0195312 28.787109 C 2.1203164 24.86154 3.2444476 3 16 3 C 28.755552 3 29.879684 24.86154 29.980469 28.787109 C 29.988755 28.725257 30 28.663802 30 28.599609 C 30 28.599609 30 2 16 2 z" style="fill:#ffffff;opacity:.2"/>
 <path d="m24 17c0 4.418278-3.581722 8-8 8s-8-3.581722-8-8c0-2.963386 1.6112473-5.550445 4.005468-6.932903 1.175457-0.6787257 2.450394 1.16405 3.905286 1.16405 1.508052 0 3.007891-1.8138757 4.211866-1.088492 2.323422 1.399839 3.87738 3.947119 3.87738 6.857345z" style="opacity:.2"/>
 <path d="m24 16c0 4.418278-3.581722 8-8 8s-8-3.581722-8-8c0-2.963386 1.6112473-5.550445 4.005468-6.9329027 1.175457-0.678726 2.450394 1.1640497 3.905286 1.1640497 1.508052 0 3.007891-1.8138757 4.211866-1.0884923 2.323422 1.3998393 3.87738 3.9471193 3.87738 6.8573453z" style="fill:#69e27d"/>
 <circle cx="16" cy="16" r="5" style="fill:#00a200"/>
 <path d="m5.5 10.5s2.4230255-2.0118461 4.2-2c2.298016 0.015316 4.001933 3 6.3 3s4.001984-2.9846805 6.3-3c1.776974-0.011844 4.2 2 4.2 2" style="fill:none;opacity:.2;stroke-linecap:round;stroke-linejoin:round;stroke-width:3;stroke:#000000"/>
 <path d="m5.5 9.5s2.4230255-2.0118461 4.2-2c2.298016 0.015316 4.001933 3 6.3 3s4.001984-2.9846805 6.3-3c1.776974-0.011844 4.2 2 4.2 2" style="fill:none;stroke-linecap:round;stroke-linejoin:round;stroke-width:3;stroke:#3f3f3f"/>
</svg>

<svg xmlns="http://www.w3.org/2000/svg" width="32" height="32" version="1">
 <path style="opacity:0.2" d="M 30,29.6 C 30,29.6 30,3 16,3 2,3 2,29.6 2,29.6 2,30.3756 2.6244,31 3.4,31 l 25.2,0 c 0.7756,0 1.4,-0.6244 1.4,-1.4 z"/>
 <path style="fill:#bb4499" d="M 30,28.6 C 30,28.6 30,2 16,2 2,2 2,28.6 2,28.6 2,29.3756 2.6244,30 3.4,30 l 25.2,0 c 0.7756,0 1.4,-0.6244 1.4,-1.4 z"/>
 <path style="fill:#ffffff;opacity:0.2" d="M 16 2 C 2 2 2 28.599609 2 28.599609 C 2 28.663802 2.0112452 28.725257 2.0195312 28.787109 C 2.1203164 24.86154 3.2444476 3 16 3 C 28.755552 3 29.879684 24.86154 29.980469 28.787109 C 29.988755 28.725257 30 28.663802 30 28.599609 C 30 28.599609 30 2 16 2 z"/>
 <path style="opacity:0.2" d="m 24,17 c 0,4.418278 -3.581722,8 -8,8 -4.418278,0 -8,-3.581722 -8,-8 0,-2.963386 1.6112473,-5.550445 4.005468,-6.932903 1.175457,-0.6787257 2.450394,1.16405 3.905286,1.16405 1.508052,0 3.007891,-1.8138757 4.211866,-1.088492 C 22.446042,11.542494 24,14.089774 24,17 Z"/>
 <path style="fill:#69e27d" d="m 24,16 c 0,4.418278 -3.581722,8 -8,8 -4.418278,0 -8,-3.581722 -8,-8 0,-2.963386 1.6112473,-5.550445 4.005468,-6.9329027 1.175457,-0.678726 2.450394,1.1640497 3.905286,1.1640497 1.508052,0 3.007891,-1.8138757 4.211866,-1.0884923 C 22.446042,10.542494 24,13.089774 24,16 Z"/>
 <circle style="fill:#00a200" cx="16" cy="16" r="5"/>
 <path style="opacity:0.2;fill:none;stroke:#000000;stroke-width:3;stroke-linecap:round;stroke-linejoin:round" d="m 5.5,10.5 c 0,0 2.4230255,-2.0118461 4.2,-2 2.298016,0.015316 4.001933,3 6.3,3 2.298067,0 4.001984,-2.9846805 6.3,-3 1.776974,-0.011844 4.2,2 4.2,2 l 0,0"/>
 <path style="fill:none;stroke:#3f3f3f;stroke-width:3;stroke-linecap:round;stroke-linejoin:round" d="m 5.5,9.5 c 0,0 2.4230255,-2.0118461 4.2,-2 2.298016,0.015316 4.001933,3 6.3,3 2.298067,0 4.001984,-2.9846805 6.3,-3 1.776974,-0.011844 4.2,2 4.2,2 l 0,0"/>
</svg>
